static/assets/img/icons/theme/cooking/saucepan.svg

<svg height="24" viewBox="0 0 24 24" width="24" xmlns="http://www.w3.org/2000/svg"><g fill="none" fill-rule="evenodd"><path d="m0 0h24v24h-24z" opacity="0"/><g fill="#000"><path d="m2 9h10c.5522847 0 1 .44771525 1 1v3c0 2.209139-1.790861 4-4 4h-4c-2.209139 0-4-1.790861-4-4v-3c0-.55228475.44771525-1 1-1z"/><path d="m14.9984604 9.44452998 6.5038491-.36132495c.7824742-.04347079 1.452035.55560988 1.4955058 1.33808417.0014562.0262117.0021847.0524587.0021847.0787108 0 .7836808-.6352989 1.4189797-1.4189797 1.4189797-.0262521 0-.0524991-.0007285-.0787108-.0021847l-6.5038491-.361325c-.5601736-.0311207-.9984604-.4944327-.9984604-1.05547 0-.56103732.4382868-1.02434927.9984604-1.05547002z" opacity=".3"/></g></g></svg>

<svg width="24px" height="24px" viewBox="0 0 24 24" version="1.1" xmlns="http://www.w3.org/2000/svg" xmlns:xlink="http://www.w3.org/1999/xlink">
    <title>Icon For Saucepan</title>
    <g stroke="none" stroke-width="1" fill="none" fill-rule="evenodd">
        <rect opacity="0" x="0" y="0" width="24" height="24"></rect>
        <path d="M2,9 L12,9 C12.5522847,9 13,9.44771525 13,10 L13,13 C13,15.209139 11.209139,17 9,17 L5,17 C2.790861,17 1,15.209139 1,13 L1,10 C1,9.44771525 1.44771525,9 2,9 Z" fill="#000000"></path>
        <path d="M14.9984604,9.44452998 L21.5023095,9.08320503 C22.2847837,9.03973424 22.9543445,9.63881491 22.9978153,10.4212892 C22.9992715,10.4475009 23,10.4737479 23,10.5 L23,10.5 C23,11.2836808 22.3647011,11.9189797 21.5810203,11.9189797 C21.5547682,11.9189797 21.5285212,11.9182512 21.5023095,11.916795 L14.9984604,11.55547 C14.4382868,11.5243493 14,11.0610373 14,10.5 L14,10.5 C14,9.93896268 14.4382868,9.47565073 14.9984604,9.44452998 Z" fill="#000000" opacity="0.3"></path>
    </g>
</svg>
